!!!OTL: Rache im Zweikampf Derrier' chez nous il-y-a-t-un capitaine
!!!ARE: Europa, Mitteleuropa, franzoesische Schweiz, Jura
!!!YOR: 5, S. 105
!!    1917 gedruckt in Bale und Lausanne
!!!SCT: Q2097A
!!!YEM: Copyright 1995, estate of Helmut Schaffrath.
**kern
*ICvox
*Ivox
*M6/8
*k[]
*C:
=1
{8cc
8b
8cc
8dd
8cc
8b
=2
8a
8b
8a
4g
8g}
=3
{8cc
8b
8cc
8dd
8cc
8b
=4
8a
8b
8a
4g}
{8a
=5
4g
8f
4.e
=6
8cc
8dd
8ee
8ff
8gg
8dd
=7
8cc
8cc
8a}
{4g
8f
=8
4.e
8ee
8ee
8ee
=9
8dd
8cc
8b
4.cc}
==
!!!AGN: Ballade, Frau in Maennerkleidung, Soldat, Betrug, Rache
!! Schweizerische Fassung der Ballade.
!!!ONB: ESAC (Essen Associative Code) Database: BALLADE
!!!AMT: compound duple
!!!AIN: vox
!!!EED: Helmut Schaffrath
!!!EEV: 1.0
*-
